build/img/icon-instagram.svg

<svg width="20" height="20" viewBox="0 0 20 20" fill="none" xmlns="http://www.w3.org/2000/svg">
<path d="M15.6474 0H4.35257C1.94618 0 0 1.96209 0 4.38147V15.6185C0 18.0379 1.94618 20 4.35257 20H15.6474C18.0499 20 20 18.0379 20 15.6185V4.38147C20 1.96209 18.0499 0 15.6474 0ZM17.6755 13.2343C17.6716 15.6928 15.6825 17.6861 13.2293 17.6901H6.77067C4.31747 17.6861 2.32839 15.6928 2.32449 13.2343V6.76177C2.32449 4.3033 4.31747 2.30604 6.77067 2.30604H13.2293C15.6825 2.30604 17.6755 4.3033 17.6755 6.76177V13.2343Z" fill="white" fill-opacity="0.3"/>
<path d="M10 7.27379C8.49844 7.27379 7.27769 8.49326 7.27769 10.002C7.27769 11.5107 8.49454 12.7301 10 12.7301C11.5055 12.7301 12.7223 11.5107 12.7223 10.002C12.7184 8.49326 11.5016 7.27379 10 7.27379Z" fill="white" fill-opacity="0.3"/>
<path d="M13.2254 3.25191H6.77067C4.83619 3.25581 3.26833 4.82705 3.26833 6.76568V13.2382C3.27223 15.1769 4.84009 16.7481 6.77067 16.752H13.2293C15.1638 16.7481 16.7317 15.1769 16.7317 13.2382V6.76177C16.7278 4.82705 15.1599 3.25581 13.2254 3.25191ZM10 13.6682C7.97972 13.6682 6.33775 12.0266 6.34165 9.99805C6.34165 7.97342 7.97972 6.32793 10.0039 6.33183C12.0242 6.33183 13.6622 7.97342 13.6622 10.002C13.6583 12.0266 12.0203 13.6643 10 13.6682ZM14.1966 6.57416C13.7676 6.57416 13.4165 6.2224 13.4165 5.79246C13.4165 5.36252 13.7676 5.01075 14.1966 5.01075C14.6256 5.01075 14.9766 5.36252 14.9766 5.79246C14.9766 6.2224 14.6256 6.57416 14.1966 6.57416Z" fill="white" fill-opacity="0.3"/>
</svg>

<svg width="20" height="20" fill="none" xmlns="http://www.w3.org/2000/svg"><path d="M15.647 0H4.353C1.946 0 0 1.962 0 4.381v11.237C0 18.038 1.946 20 4.353 20h11.294C18.05 20 20 18.038 20 15.618V4.381C20 1.962 18.05 0 15.647 0zm2.028 13.234a4.46 4.46 0 01-4.446 4.456H6.771a4.46 4.46 0 01-4.447-4.456V6.762a4.454 4.454 0 014.447-4.456h6.458a4.454 4.454 0 014.447 4.456v6.472z" fill="#fff" fill-opacity=".3"/><path d="M10 7.274a2.725 2.725 0 00-2.722 2.728 2.723 2.723 0 105.444 0A2.728 2.728 0 0010 7.274z" fill="#fff" fill-opacity=".3"/><path d="M13.225 3.252H6.771a3.512 3.512 0 00-3.503 3.514v6.472a3.517 3.517 0 003.503 3.514h6.458a3.512 3.512 0 003.503-3.514V6.762a3.517 3.517 0 00-3.507-3.51zM10 13.668a3.66 3.66 0 01-3.658-3.67 3.66 3.66 0 117.32.004A3.67 3.67 0 0110 13.668zm4.197-7.094a.783.783 0 01-.78-.782c0-.43.35-.781.78-.781.429 0 .78.352.78.781 0 .43-.351.782-.78.782z" fill="#fff" fill-opacity=".3"/></svg>
